svgs/smartkit360.svg

<svg xmlns="http://www.w3.org/2000/svg" viewBox="0 0 192 192"><path d="M18.427 157.913 16 155.825V59.526l2.427-2.087c2.363-2.033 2.816-2.088 17.437-2.088h15.01l.293-9.59c.283-9.274.372-9.659 2.719-11.675L56.313 32h79.374l2.427 2.086c2.347 2.016 2.436 2.401 2.719 11.675l.293 9.59h15.01c14.621 0 15.074.055 17.437 2.088L176 59.526v96.299l-2.427 2.088-2.426 2.087H20.853Zm104.258-47.578c2.921-1.51 4.45-4.667 4.45-9.187V97.73h41.514v-8.649h-41.514V84.77c0-3.54-.451-4.815-2.524-7.135l-2.523-2.824H69.912l-2.523 2.824c-2.073 2.32-2.524 3.595-2.524 7.135v4.311H23.351v8.649h41.514l.03 3.675c.037 4.331 1.525 7.368 4.389 8.956 3.115 1.726 50.057 1.704 53.401-.026ZM73.514 93.838v-9.946h44.972v19.892H73.514Zm59.675-46.703v-8.216H58.811v16.432h74.378Z"/></svg>

<svg
    xmlns="http://www.w3.org/2000/svg"
    viewBox="0 0 192 192"
    id="vector">
    <path
        id="path"
        d="M 18.427 157.913 L 16 155.825 L 16 59.526 L 18.427 57.439 C 20.79 55.406 21.243 55.351 35.864 55.351 L 50.874 55.351 L 51.167 45.761 C 51.45 36.487 51.539 36.102 53.886 34.086 L 56.313 32 L 135.687 32 L 138.114 34.086 C 140.461 36.102 140.55 36.487 140.833 45.761 L 141.126 55.351 L 156.136 55.351 C 170.757 55.351 171.21 55.406 173.573 57.439 L 176 59.526 L 176 155.825 L 173.573 157.913 L 171.147 160 L 20.853 160 Z M 122.685 110.335 C 125.606 108.825 127.135 105.668 127.135 101.148 L 127.135 97.73 L 168.649 97.73 L 168.649 89.081 L 127.135 89.081 L 127.135 84.77 C 127.135 81.23 126.684 79.955 124.611 77.635 L 122.088 74.811 L 69.912 74.811 L 67.389 77.635 C 65.316 79.955 64.865 81.23 64.865 84.77 L 64.865 89.081 L 23.351 89.081 L 23.351 97.73 L 64.865 97.73 L 64.895 101.405 C 64.932 105.736 66.42 108.773 69.284 110.361 C 72.399 112.087 119.341 112.065 122.685 110.335 Z M 73.514 93.838 L 73.514 83.892 L 118.486 83.892 L 118.486 103.784 L 73.514 103.784 Z M 133.189 47.135 L 133.189 38.919 L 58.811 38.919 L 58.811 55.351 L 133.189 55.351 Z"
        fill="#000000"
        stroke-width="12"/>
</svg>
